X: 1
T:Le Magicien I - bourree
C:Gilles Chabenat
N:abc transcription Simon Wascher
N:if you find an error in this transcription please inform simon.wascher@chello.at
M:3/8
L:1/16
K:G
c2B2A2|d2dedc|A2ABcd|G2GAFD|
c2B2A2|d2dedc|ABcdFD|1G6:|2G4FG||
|:A2F2D2|B2GBde|A2Bceg|f2e2d2|
A2F2D2|B2GBde|AcefFD|G6:|
